React/src/assets/images/frontend/babel.svg

<svg width="130" height="130" viewBox="0 0 130 130" fill="none" xmlns="http://www.w3.org/2000/svg">
<path d="M98.7459 60.7208C98.5834 59.8541 96.2 56.8749 91.5959 51.7833C91.4875 50.7541 93.1667 49.3458 96.4709 47.4499L105.896 39.0541C108.008 36.3458 109.254 32.1208 109.633 26.1624L109.525 24.7541C109.146 20.5291 106.113 17.1708 100.371 14.5166C96.9584 12.2416 90.8375 10.9958 82.0625 10.8333C74.75 11.4291 65.2167 14.0291 53.4625 18.5791C50.2125 20.9083 46.5292 23.2374 42.4125 25.5124L42.4667 26.2708L43.6042 25.8374C44.0375 25.7833 44.3084 25.9999 44.3625 26.4333L45.0667 26.0541L45.4459 25.9999L45.5 26.3249C45.5 26.7041 42.9542 28.7083 35.9667 33.6374L35.6417 34.2874C33.9625 34.3958 32.3375 35.6416 30.7125 37.9166L31.1459 38.5666L32.5 38.0791L33.475 39.3791C35.2084 37.5916 37.05 36.0208 39.0542 34.6666C40.0834 34.9374 40.625 35.2624 41.4375 35.5333C46.9625 31.4708 52.4334 28.4916 57.9042 26.6499L57.9584 27.4083C56.875 28.8708 56.225 29.6833 55.9 29.6833L56.4417 30.9291C56.4959 31.9583 42.6292 68.8458 20.3667 109.146L20.8 110.175C22.6959 109.742 23.9417 109.254 24.8625 108.767L24.9167 109.471L27.0834 109.308L23.4542 118.842L24.2125 119.167C27.3 115.7 29.6292 112.179 31.2542 108.983C40.3 106.329 47.1792 103.729 51.9459 101.183C56.7125 100.75 60.3959 99.5041 62.8875 97.3916L67.8709 94.8458C74.75 89.5374 79.8959 85.7999 83.4167 83.5791C90.6209 78.2708 95.3334 73.1249 97.5 68.1416L98.7459 60.7208ZM80.0042 73.2333L70.4167 80.7624C63.4292 85.3666 59.5834 87.8041 59.0959 87.8041C47.8834 93.9249 40.8959 97.1208 38.1875 97.3374L37.9167 97.3916C38.1334 96.1458 43.1167 85.9083 52.8125 66.6791C57.0375 66.3541 63.7542 64.3499 72.9084 60.7208L75.1292 60.5583C79.7334 60.1249 83.2 61.0458 85.475 63.2124L85.6375 64.6208C83.9584 69.4958 82.0084 72.4208 80.0042 73.2333V73.2333ZM85.9084 41.9249C84.9334 43.1166 82.225 45.1208 77.7834 47.9374C76.3209 48.0999 70.9042 50.2124 61.4792 54.3291L59.9625 54.0583L59.9084 53.4083C59.8 52.0541 60.3959 50.3208 61.75 48.2624C62.4542 44.4708 63.2667 42.1958 64.1334 41.7624L71.9875 23.9958C71.8792 22.8041 73.5584 22.0999 77.025 21.5041L78.1625 21.3958L78.2167 22.3708L84.5 21.5041C90.7292 20.9624 93.9792 22.2624 94.25 25.2958L94.9542 25.1874L94.7917 23.4541L95.6042 23.3458C97.5 24.3749 98.4209 25.5124 98.5292 27.0291C98.6375 28.0041 98.0959 29.2499 96.9584 30.7124C96.4709 30.7666 96.2 30.3874 96.1459 29.7374L95.3875 29.7916L95.225 31.9583C92.0834 36.6708 89.7542 39.0541 88.3459 39.2166L85.9084 41.9249Z" fill="#FDD835"/>
</svg>

<svg width="130" height="130" fill="none" xmlns="http://www.w3.org/2000/svg"><path d="M98.746 60.72c-.163-.866-2.546-3.845-7.15-8.937-.109-1.029 1.57-2.437 4.875-4.333l9.425-8.396c2.112-2.708 3.358-6.933 3.737-12.892l-.108-1.408c-.379-4.225-3.412-7.583-9.154-10.237-3.413-2.275-9.533-3.521-18.308-3.684-7.313.596-16.846 3.196-28.6 7.746-3.25 2.33-6.934 4.658-11.05 6.933l.054.759 1.137-.434c.434-.054.704.163.758.596l.705-.379.379-.054.054.325c0 .38-2.546 2.383-9.533 7.312l-.325.65c-1.68.109-3.305 1.355-4.93 3.63l.434.65 1.354-.488.975 1.3c1.733-1.787 3.575-3.358 5.58-4.712 1.028.27 1.57.595 2.383.866 5.524-4.062 10.995-7.041 16.466-8.883l.054.758c-1.083 1.463-1.733 2.275-2.058 2.275l.542 1.246c.054 1.03-13.813 37.917-36.075 78.217l.433 1.029c1.896-.433 3.142-.921 4.063-1.408l.054.704 2.166-.163-3.629 9.534.758.325c3.088-3.467 5.417-6.988 7.042-10.184 9.046-2.654 15.925-5.254 20.692-7.8 4.767-.433 8.45-1.679 10.942-3.791l4.983-2.546c6.879-5.309 12.025-9.046 15.546-11.267C90.62 78.271 95.333 73.125 97.5 68.142l1.246-7.421zM80.004 73.234l-9.587 7.53c-6.988 4.604-10.834 7.041-11.321 7.041-11.213 6.12-18.2 9.317-20.908 9.533l-.271.055c.216-1.246 5.2-11.484 14.895-30.713 4.226-.325 10.942-2.33 20.096-5.958l2.221-.163c4.604-.433 8.071.488 10.346 2.654l.163 1.409c-1.68 4.875-3.63 7.8-5.634 8.612zm5.904-31.308c-.975 1.192-3.683 3.196-8.125 6.012-1.462.163-6.879 2.275-16.304 6.392l-1.517-.27-.054-.65c-.108-1.355.488-3.088 1.842-5.147.704-3.791 1.517-6.066 2.383-6.5l7.855-17.766c-.109-1.192 1.57-1.896 5.037-2.492l1.137-.108.055.975 6.283-.867c6.23-.542 9.48.758 9.75 3.792l.704-.109-.162-1.733.812-.108c1.896 1.029 2.817 2.166 2.925 3.683.109.975-.433 2.22-1.57 3.683-.488.055-.759-.325-.813-.975l-.758.055-.163 2.166c-3.142 4.713-5.47 7.096-6.88 7.259l-2.437 2.708z" fill="#FDD835"/></svg>
